; generated by Slic3r 0.9.1 on 2012-08-26 at 11:17:21

; layer_height = 0.4
; perimeters = 3
; solid_layers = 3
; fill_density = 0.4
; perimeter_speed = 30
; infill_speed = 60
; travel_speed = 130
; scale = 1
; nozzle_diameter = 0.5
; filament_diameter = 3
; extrusion_multiplier = 1
; single wall width = 0.53mm
; first layer single wall width = 1.00mm

M190 S65 ; wait for bed temperature to be reached
M104 S205 ; set temperature
G28 ; home all axes
M109 S205 ; wait for temperature to be reached
G90 ; use absolute coordinates
G21 ; set units to millimeters
G92 E0
M82 ; use absolute distances for extrusion
G1 Z0.500 F7800.000
G1 X90.490 Y128.904
G1 F1800.000 E1.00000
G1 X109.760 Y128.914 F540.000 E2.21681
G1 X110.310 Y128.954 E2.25164
G1 X110.850 Y129.044 E2.28621
G1 X111.380 Y129.164 E2.32052
G1 X112.150 Y129.434 E2.37204
G1 X112.640 Y129.664 E2.40622
G1 X113.350 Y130.074 E2.45800
G1 X113.790 Y130.394 E2.49235
G1 X114.210 Y130.754 E2.52728
G1 X114.590 Y131.134 E2.56122
G1 X114.950 Y131.554 E2.59615
G1 X115.270 Y131.994 E2.63050
G1 X115.680 Y132.704 E2.68227
G1 X115.910 Y133.194 E2.71645
G1 X116.100 Y133.704 E2.75082
G1 X116.180 Y133.964 E2.76800
G1 X116.350 Y134.764 E2.81964
G1 X116.390 Y135.034 E2.83688
G1 X116.440 Y135.854 E2.88875
G1 X116.430 Y140.254 E3.16659
G1 X116.390 Y140.804 E3.20142
G1 X116.300 Y141.344 E3.23598
G1 X116.180 Y141.874 E3.27030
G1 X115.910 Y142.644 E3.32182
G1 X115.680 Y143.134 E3.35600
G1 X115.270 Y143.844 E3.40778
G1 X114.950 Y144.284 E3.44213
G1 X114.590 Y144.704 E3.47706
G1 X114.210 Y145.084 E3.51100
G1 X113.790 Y145.444 E3.54593
G1 X113.350 Y145.764 E3.58028
G1 X112.640 Y146.174 E3.63205
G1 X112.150 Y146.404 E3.66623
G1 X111.640 Y146.594 E3.70060
G1 X111.380 Y146.674 E3.71778
G1 X110.580 Y146.844 E3.76942
G1 X110.310 Y146.884 E3.78666
G1 X109.490 Y146.934 E3.83853
G1 X90.220 Y146.924 E5.05535
G1 X89.670 Y146.884 E5.09017
G1 X89.130 Y146.794 E5.12474
G1 X88.600 Y146.674 E5.15905
G1 X87.830 Y146.404 E5.21058
G1 X87.340 Y146.174 E5.24476
G1 X86.630 Y145.764 E5.29653
G1 X86.190 Y145.444 E5.33088
G1 X85.770 Y145.084 E5.36581
G1 X85.390 Y144.704 E5.39975
G1 X85.030 Y144.284 E5.43468
G1 X84.710 Y143.844 E5.46903
G1 X84.300 Y143.134 E5.52080
G1 X84.070 Y142.644 E5.55498
G1 X83.880 Y142.134 E5.58935
G1 X83.800 Y141.874 E5.60653
G1 X83.630 Y141.074 E5.65817
G1 X83.590 Y140.804 E5.67541
G1 X83.540 Y139.984 E5.72728
G1 X83.550 Y135.584 E6.00513
G1 X83.590 Y135.034 E6.03995
G1 X83.680 Y134.494 E6.07452
G1 X83.800 Y133.964 E6.10883
G1 X84.070 Y133.194 E6.16035
G1 X84.300 Y132.704 E6.19454
G1 X84.710 Y131.994 E6.24631
G1 X85.030 Y131.554 E6.28066
G1 X85.390 Y131.134 E6.31559
G1 X85.770 Y130.754 E6.34953
G1 X86.190 Y130.394 E6.38446
G1 X86.630 Y130.074 E6.41881
G1 X87.340 Y129.664 E6.47058
G1 X87.830 Y129.434 E6.50476
G1 X88.340 Y129.244 E6.53913
G1 X88.600 Y129.164 E6.55631
G1 X89.400 Y128.994 E6.60795
G1 X89.670 Y128.954 E6.62519
G1 X90.340 Y128.909 E6.66759
G1 F1800.000 E5.66759
G92 E0
G1 X91.446 Y136.804 F7800.000
G1 F1800.000 E1.00000
G1 X108.554 Y136.804 F540.000 E2.08025
G1 X108.554 Y139.045 E2.22176
G1 X91.446 Y139.045 E3.30201
G1 X91.446 Y136.954 E3.43404
G1 X90.500 Y135.858 F7800.000
G1 X109.500 Y135.858 F540.000 E4.63381
G1 X109.500 Y139.991 E4.89483
G1 X90.500 Y139.991 E6.09460
G1 X90.500 Y136.008 E6.34615
G1 F1800.000 E5.34615
G92 E0
G1 X99.509 Y138.020 F7800.000
G1 F1800.000 E1.00000
G1 X107.362 Y137.930 F1080.000 E1.49590
G1 F1800.000 E0.49590
G92 E0
G1 X96.564 Y138.054 F7800.000
G1 F1800.000 E1.00000
G1 X99.509 Y138.020 F1080.000 E1.18596
G1 F1800.000 E0.18596
G92 E0
G1 X93.129 Y138.088 F7800.000
G1 F1800.000 E1.00000
G1 X96.564 Y138.054 F1080.000 E1.21694
G1 F1800.000 E0.21694
G92 E0
G1 X93.129 Y138.093 F7800.000
G1 F1800.000 E1.00000
G1 X93.129 Y138.088 F1080.000 E1.00035
M104 S200 ; set temperature
M140 S60 ; set bed temperature
G1 F1800.000 E0.00035
G92 E0
G1 Z0.900 F7800.000
G1 X108.693 Y136.113
G1 F1800.000 E1.00000
G1 X108.693 Y139.932 F1800.000 E1.11229
G1 X91.307 Y139.932 E1.62352
G1 X91.307 Y136.113 E1.73581
G1 X108.614 Y136.113 E2.24473
G1 X109.215 Y135.591 F7800.000
G1 X109.215 Y140.454 F1800.000 E2.38774
G1 X90.785 Y140.454 E2.92969
G1 X90.785 Y135.591 E3.07270
G1 X109.136 Y135.591 E3.61233
G1 X109.737 Y135.069 F7800.000
G1 X109.737 Y140.977 F1800.000 E3.78606
G1 X90.262 Y140.977 E4.35873
G1 X90.262 Y135.069 E4.53245
G1 X109.659 Y135.069 E5.10281
G1 F1800.000 E4.10281
G92 E0
G1 X108.319 Y139.262 F7800.000
G1 F1800.000 E1.00000
G1 X108.022 Y139.559 F3600.000 E1.01235
G1 X106.175 Y139.559 E1.06666
G1 X108.319 Y137.415 E1.15582
G1 X107.400 Y136.487 E1.19422
G1 X104.328 Y139.559 E1.32196
G1 X102.482 Y139.558 E1.37625
G1 X105.553 Y136.487 E1.50396
G1 X103.707 Y136.488 E1.55824
G1 X100.636 Y139.559 E1.68595
G1 X98.789 Y139.559 E1.74026
G1 X101.860 Y136.487 E1.86800
G1 X100.013 Y136.487 E1.92231
G1 X96.942 Y139.559 E2.05005
G1 X95.096 Y139.558 E2.10434
G1 X98.166 Y136.487 E2.23204
G1 X96.320 Y136.487 E2.28635
G1 X93.249 Y139.558 E2.41406
G1 X91.681 Y139.280 E2.46088
G1 X94.473 Y136.488 E2.57700
G1 X92.627 Y136.487 E2.63129
G1 X91.681 Y137.433 E2.67063
G1 F1800.000 E1.67063
G92 E0
G1 Z1.300 F7800.000
G1 X108.693 Y135.840
G1 F1800.000 E1.00000
G1 X108.693 Y140.324 F1800.000 E1.13187
G1 X91.307 Y140.324 E1.64310
G1 X91.307 Y135.840 E1.77497
G1 X108.614 Y135.840 E2.28389
G1 X109.215 Y135.317 F7800.000
G1 X109.215 Y140.847 F1800.000 E2.44647
G1 X90.785 Y140.847 E2.98842
G1 X90.785 Y135.317 E3.15101
G1 X109.136 Y135.317 E3.69064
G1 X109.737 Y134.795 F7800.000
G1 X109.737 Y141.369 F1800.000 E3.88395
G1 X90.262 Y141.369 E4.45662
G1 X90.262 Y134.795 E4.64992
G1 X109.659 Y134.795 E5.22027
G1 F1800.000 E4.22027
G92 E0
G1 X106.707 Y136.213 F7800.000
G1 F1800.000 E1.00000
G1 X108.319 Y137.825 F3600.000 E1.06701
G1 X108.319 Y139.672 E1.12133
G1 X104.861 Y136.214 E1.26512
G1 X103.014 Y136.214 E1.31943
G1 X106.751 Y139.951 E1.47483
G1 X104.904 Y139.951 E1.52915
G1 X101.167 Y136.214 E1.68455
G1 X99.321 Y136.213 E1.73884
G1 X103.058 Y139.950 E1.89425
G1 X101.211 Y139.950 E1.94856
G1 X97.474 Y136.213 E2.10397
G1 X95.628 Y136.214 E2.15826
G1 X99.365 Y139.951 E2.31366
G1 X97.518 Y139.951 E2.36797
G1 X93.781 Y136.214 E2.52338
G1 X91.935 Y136.213 E2.57767
G1 X95.672 Y139.950 E2.73308
G1 X93.825 Y139.950 E2.78739
G1 X91.681 Y137.806 E2.87655
G1 X91.681 Y139.653 E2.93086
G1 X91.978 Y139.951 E2.94324
G1 F1800.000 E1.94324
G92 E0
G1 Z1.700 F7800.000
G1 X91.307 Y135.695
G1 F1800.000 E1.00000
G1 X108.693 Y135.695 F1800.000 E1.51123
G1 X108.693 Y140.603 E1.65557
G1 X91.307 Y140.603 E2.16680
G1 X91.307 Y135.773 E2.30882
G1 X90.785 Y135.172 F7800.000
G1 X109.215 Y135.172 F1800.000 E2.85077
G1 X109.215 Y141.125 E3.02583
G1 X90.785 Y141.125 E3.56778
G1 X90.785 Y135.251 E3.74052
G1 X90.262 Y134.650 F7800.000
G1 X109.737 Y134.650 F1800.000 E4.31318
G1 X109.737 Y141.648 E4.51896
G1 X90.262 Y141.648 E5.09162
G1 X90.262 Y134.729 E5.29508
G1 F1800.000 E4.29508
G92 E0
G1 X91.681 Y138.103 F7800.000
G1 F1800.000 E1.00000
G1 X93.716 Y136.068 F3600.000 E1.08463
G1 X95.563 Y136.068 E1.13894
G1 X91.681 Y139.950 E1.30037
G1 X93.249 Y140.230 E1.34720
G1 X97.410 Y136.068 E1.52025
G1 X99.257 Y136.068 E1.57456
G1 X95.096 Y140.230 E1.74761
G1 X96.942 Y140.229 E1.80190
G1 X101.102 Y136.068 E1.97492
G1 X102.949 Y136.068 E2.02923
G1 X98.789 Y140.229 E2.20225
G1 X100.635 Y140.230 E2.25654
G1 X104.796 Y136.068 E2.42959
G1 X106.643 Y136.068 E2.48390
G1 X102.482 Y140.230 E2.65695
G1 X104.329 Y140.230 E2.71126
G1 X108.319 Y136.239 E2.87720
G1 X108.319 Y138.085 E2.93147
G1 X106.175 Y140.229 E3.02062
G1 X108.022 Y140.229 E3.07493
G1 X108.319 Y139.932 E3.08728
G1 F1800.000 E2.08728
G92 E0
G1 Z2.100 F7800.000
G1 X108.693 Y140.802
G1 F1800.000 E1.00000
G1 X91.307 Y140.802 F1800.000 E1.51123
G1 X91.307 Y135.633 E1.66322
G1 X108.693 Y135.633 E2.17445
G1 X108.693 Y140.723 E2.32412
G1 X109.215 Y141.324 F7800.000
G1 X90.785 Y141.324 F1800.000 E2.86607
G1 X90.785 Y135.111 E3.04878
G1 X109.215 Y135.111 E3.59073
G1 X109.215 Y141.245 E3.77112
G1 X109.737 Y141.846 F7800.000
G1 X90.262 Y141.846 F1800.000 E4.34379
G1 X90.262 Y134.588 E4.55721
G1 X109.737 Y134.588 E5.12988
G1 X109.737 Y141.768 E5.34098
G1 F1800.000 E4.34098
G92 E0
G1 X108.319 Y136.456 F7800.000
G1 F1800.000 E1.00000
G1 X107.870 Y136.007 F3600.000 E1.01867
G1 X106.023 Y136.007 E1.07298
G1 X108.319 Y138.303 E1.16846
G1 X108.320 Y140.149 E1.22275
G1 X104.177 Y136.007 E1.39501
G1 X102.330 Y136.007 E1.44932
G1 X106.751 Y140.427 E1.63316
G1 X104.905 Y140.428 E1.68745
G1 X100.483 Y136.007 E1.87132
G1 X98.637 Y136.007 E1.92563
G1 X103.058 Y140.428 E2.10950
G1 X101.211 Y140.428 E2.16381
G1 X96.790 Y136.007 E2.34769
G1 X94.944 Y136.007 E2.40196
G1 X99.365 Y140.427 E2.58580
G1 X97.518 Y140.427 E2.64011
G1 X93.097 Y136.007 E2.82395
G1 X91.681 Y136.437 E2.86748
G1 X95.672 Y140.428 E3.03344
G1 X93.825 Y140.428 E3.08775
G1 X91.681 Y138.284 E3.17691
G1 X91.681 Y140.131 E3.23122
G1 X91.978 Y140.428 E3.24357
G1 F1800.000 E2.24357
G92 E0
G1 Z2.500 F7800.000
G1 X108.693 Y135.625
G1 F1800.000 E1.00000
G1 X108.693 Y140.922 F1800.000 E1.15574
G1 X91.307 Y140.922 E1.66697
G1 X91.307 Y135.625 E1.82272
G1 X108.614 Y135.625 E2.33163
G1 X109.215 Y135.103 F7800.000
G1 X109.215 Y141.444 F1800.000 E2.51809
G1 X90.785 Y141.444 E3.06004
G1 X90.785 Y135.103 E3.24650
G1 X109.136 Y135.103 E3.78614
G1 X109.737 Y134.581 F7800.000
G1 X109.737 Y141.966 F1800.000 E4.00332
G1 X90.262 Y141.966 E4.57598
G1 X90.262 Y134.581 E4.79316
G1 X109.659 Y134.581 E5.36351
G1 F1800.000 E4.36351
G92 E0
G1 X108.319 Y140.250 F7800.000
G1 F1800.000 E1.00000
G1 X108.021 Y140.548 F3600.000 E1.01238
G1 X106.176 Y140.548 E1.06665
G1 X108.319 Y138.405 E1.15578
G1 X108.319 Y136.558 E1.21009
G1 X104.329 Y140.548 E1.37602
G1 X102.482 Y140.548 E1.43033
G1 X107.031 Y135.999 E1.61950
G1 X105.184 Y135.999 E1.67381
G1 X100.635 Y140.548 E1.86297
G1 X98.788 Y140.548 E1.91728
G1 X103.338 Y135.998 E2.10648
G1 X101.491 Y135.999 E2.16077
G1 X96.942 Y140.548 E2.34993
G1 X95.096 Y140.548 E2.40424
G1 X99.644 Y135.999 E2.59340
G1 X97.797 Y135.999 E2.64772
G1 X93.249 Y140.548 E2.83688
G1 X91.681 Y140.269 E2.88370
G1 X95.950 Y135.999 E3.06125
G1 X94.104 Y135.998 E3.11554
G1 X91.681 Y138.422 E3.21631
G1 X91.681 Y136.576 E3.27058
G1 X92.258 Y135.999 E3.29458
G1 F1800.000 E2.29458
G92 E0
G1 Z2.900 F7800.000
G1 X91.307 Y135.625
G1 F1800.000 E1.00000
G1 X108.693 Y135.625 F1800.000 E1.51123
G1 X108.693 Y140.985 E1.66886
G1 X91.307 Y140.985 E2.18009
G1 X91.307 Y135.704 E2.33540
G1 X90.785 Y135.103 F7800.000
G1 X109.215 Y135.103 F1800.000 E2.87735
G1 X109.215 Y141.508 E3.06569
G1 X90.785 Y141.508 E3.60764
G1 X90.785 Y135.182 E3.79366
G1 X90.262 Y134.581 F7800.000
G1 X109.737 Y134.581 F1800.000 E4.36633
G1 X109.737 Y142.030 E4.58539
G1 X90.262 Y142.030 E5.15806
G1 X90.262 Y134.659 E5.37480
G1 F1800.000 E4.37480
G92 E0
G1 X91.978 Y140.612 F7800.000
G1 F1800.000 E1.00000
G1 X91.681 Y140.315 F3600.000 E1.01235
G1 X91.681 Y138.468 E1.06666
G1 X93.825 Y140.612 E1.15582
G1 X95.672 Y140.612 E1.21013
G1 X91.681 Y136.621 E1.37609
G1 X92.905 Y135.999 E1.41649
G1 X97.518 Y140.611 E1.60830
G1 X99.365 Y140.611 E1.66261
G1 X94.752 Y135.999 E1.85442
G1 X96.598 Y135.999 E1.90869
G1 X101.211 Y140.612 E2.10053
G1 X103.058 Y140.612 E2.15484
G1 X98.445 Y135.999 E2.34668
G1 X100.292 Y135.999 E2.40099
G1 X104.905 Y140.612 E2.59283
G1 X106.751 Y140.611 E2.64712
G1 X102.139 Y135.999 E2.83893
G1 X103.986 Y135.999 E2.89324
G1 X108.320 Y140.333 E3.07347
G1 X108.319 Y138.486 E3.12776
G1 X105.831 Y135.999 E3.23120
G1 X107.678 Y135.999 E3.28551
G1 X108.319 Y136.640 E3.31216
G1 F1800.000 E2.31216
G92 E0
G1 Z3.300 F7800.000
G1 X91.307 Y140.999
G1 F1800.000 E1.00000
G1 X91.307 Y135.625 F1800.000 E1.15801
G1 X108.693 Y135.625 E1.66924
G1 X108.693 Y140.999 E1.82726
G1 X91.386 Y140.999 E2.33617
G1 X90.785 Y141.521 F7800.000
G1 X90.785 Y135.103 F1800.000 E2.52490
G1 X109.215 Y135.103 E3.06685
G1 X109.215 Y141.521 E3.25558
G1 X90.864 Y141.521 E3.79522
G1 X90.262 Y142.043 F7800.000
G1 X90.262 Y134.581 F1800.000 E4.01467
G1 X109.737 Y134.581 E4.58733
G1 X109.737 Y142.043 E4.80678
G1 X90.341 Y142.043 E5.37713
G1 F1800.000 E4.37713
G92 E0
G1 X92.334 Y135.999 F7800.000
G1 F1800.000 E1.00000
G1 X91.681 Y136.652 F3600.000 E1.02717
G1 X91.681 Y138.499 E1.08148
G1 X94.181 Y135.999 E1.18546
G1 X96.028 Y135.999 E1.23977
G1 X91.681 Y140.346 E1.42055
G1 X93.249 Y140.626 E1.46738
G1 X97.875 Y135.999 E1.65978
G1 X99.721 Y135.998 E1.71406
G1 X95.095 Y140.625 E1.90646
G1 X96.942 Y140.625 E1.96077
G1 X101.568 Y135.999 E2.15314
G1 X103.415 Y135.999 E2.20745
G1 X98.789 Y140.625 E2.39982
G1 X100.636 Y140.625 E2.45413
G1 X105.262 Y135.999 E2.64650
G1 X107.109 Y135.999 E2.70081
G1 X102.482 Y140.626 E2.89321
G1 X104.328 Y140.625 E2.94750
G1 X108.319 Y136.634 E3.11347
G1 X108.319 Y138.481 E3.16778
G1 X106.175 Y140.625 E3.25693
G1 X108.022 Y140.625 E3.31125
G1 X108.319 Y140.328 E3.32360
G1 F1800.000 E2.32360
G92 E0
G1 Z3.700 F7800.000
G1 X108.693 Y135.387
G1 F1800.000 E1.00000
G1 X108.693 Y140.962 F1800.000 E1.16394
G1 X91.307 Y140.962 E1.67517
G1 X91.307 Y135.387 E1.83911
G1 X108.614 Y135.387 E2.34803
G1 X109.215 Y134.865 F7800.000
G1 X109.215 Y141.484 F1800.000 E2.54268
G1 X90.785 Y141.484 E3.08463
G1 X90.785 Y134.865 E3.27929
G1 X109.136 Y134.865 E3.81892
G1 X109.737 Y134.342 F7800.000
G1 X109.737 Y142.007 F1800.000 E4.04429
G1 X90.262 Y142.007 E4.61696
G1 X90.262 Y134.342 E4.84234
G1 X109.659 Y134.342 E5.41269
G1 F1800.000 E4.41269
G92 E0
G1 X108.320 Y136.616 F7800.000
G1 F1800.000 E1.00000
G1 X107.464 Y135.761 F3600.000 E1.03558
G1 X105.617 Y135.761 E1.08989
G1 X108.319 Y138.462 E1.20225
G1 X108.319 Y140.309 E1.25656
G1 X103.770 Y135.761 E1.44572
G1 X101.924 Y135.761 E1.50001
G1 X106.751 Y140.589 E1.70076
G1 X104.904 Y140.589 E1.75507
G1 X100.077 Y135.761 E1.95582
G1 X98.231 Y135.761 E2.01011
G1 X103.058 Y140.588 E2.21086
G1 X101.211 Y140.588 E2.26517
G1 X96.384 Y135.761 E2.46592
G1 X94.537 Y135.761 E2.52024
G1 X99.365 Y140.589 E2.72101
G1 X97.518 Y140.589 E2.77533
G1 X92.690 Y135.761 E2.97608
G1 X91.681 Y136.598 E3.01462
G1 X95.672 Y140.588 E3.18055
G1 X93.825 Y140.588 E3.23486
G1 X91.681 Y138.444 E3.32402
G1 X91.681 Y140.291 E3.37833
G1 X91.978 Y140.589 E3.39071
G1 F1800.000 E2.39071
G92 E0
G1 Z4.100 F7800.000
G1 X91.307 Y134.911
G1 F1800.000 E1.00000
G1 X108.693 Y134.911 F1800.000 E1.51123
G1 X108.693 Y140.872 E1.68653
G1 X91.307 Y140.872 E2.19777
G1 X91.307 Y134.990 E2.37075
G1 X90.785 Y134.388 F7800.000
G1 X109.215 Y134.388 F1800.000 E2.91270
G1 X109.215 Y141.395 E3.11872
G1 X90.785 Y141.395 E3.66067
G1 X90.785 Y134.467 E3.86438
G1 X90.262 Y133.866 F7800.000
G1 X109.737 Y133.866 F1800.000 E4.43704
G1 X109.737 Y141.917 E4.67378
G1 X90.262 Y141.917 E5.24645
G1 X90.262 Y133.945 E5.48087
G1 F1800.000 E4.48087
G92 E0
G1 X92.923 Y135.285 F7800.000
G1 F1800.000 E1.00000
G1 X91.681 Y136.527 F3600.000 E1.05164
G1 X91.681 Y138.374 E1.10595
G1 X94.770 Y135.285 E1.23439
G1 X96.616 Y135.284 E1.28868
G1 X91.681 Y140.219 E1.49390
G1 X93.249 Y140.498 E1.54072
G1 X98.463 Y135.284 E1.75756
G1 X100.310 Y135.284 E1.81187
G1 X95.096 Y140.498 E2.02870
G1 X96.942 Y140.499 E2.08299
G1 X102.156 Y135.285 E2.29983
G1 X104.003 Y135.285 E2.35414
G1 X98.789 Y140.499 E2.57097
G1 X100.635 Y140.498 E2.62526
G1 X105.849 Y135.284 E2.84210
G1 X107.696 Y135.284 E2.89641
G1 X102.482 Y140.498 E3.11324
G1 X104.329 Y140.498 E3.16755
G1 X108.319 Y136.508 E3.33349
G1 X108.319 Y138.355 E3.38780
G1 X106.175 Y140.499 E3.47695
G1 X108.022 Y140.499 E3.53126
G1 X108.319 Y140.202 E3.54361
G1 F1800.000 E2.54361
G92 E0
G1 Z4.500 F7800.000
G1 X91.307 Y140.708
G1 F1800.000 E1.00000
G1 X91.307 Y134.435 F1800.000 E1.18447
G1 X108.693 Y134.435 E1.69571
G1 X108.693 Y140.708 E1.88018
G1 X91.386 Y140.708 E2.38910
G1 X90.785 Y141.230 F7800.000
G1 X90.785 Y133.912 F1800.000 E2.60429
G1 X109.215 Y133.912 E3.14624
G1 X109.215 Y141.230 E3.36143
G1 X90.864 Y141.230 E3.90106
G1 X90.262 Y141.753 F7800.000
G1 X90.262 Y133.390 F1800.000 E4.14697
G1 X109.737 Y133.390 E4.71964
G1 X109.737 Y141.753 E4.96555
G1 X90.341 Y141.753 E5.53590
G1 F1800.000 E4.53590
G92 E0
