; generated by Slic3r 0.9.1 on 2012-09-02 at 23:48:05

; layer_height = 0.4
; perimeters = 3
; solid_layers = 3
; fill_density = 0.4
; perimeter_speed = 30
; infill_speed = 60
; travel_speed = 130
; scale = 1
; nozzle_diameter = 0.5
; filament_diameter = 3
; extrusion_multiplier = 1
; single wall width = 0.53mm
; first layer single wall width = 0.80mm

M104 S200 ; set temperature
G28 ; home all axes
M109 S200 ; wait for temperature to be reached
G90 ; use absolute coordinates
G21 ; set units to millimeters
G92 E0
M82 ; use absolute distances for extrusion
G1 Z0.400 F7800.000
G1 X76.445 Y70.488
G1 F1800.000 E1.00000
G1 X81.165 Y65.968 F540.000 E1.27204
G1 X81.965 Y65.318 E1.31495
G1 X87.315 Y61.568 E1.58692
G1 X88.175 Y61.048 E1.62876
G1 X94.255 Y58.018 E1.91154
G1 X95.045 Y57.728 E1.94657
G1 X95.315 Y57.648 E1.95829
G1 X95.855 Y57.528 E1.98132
G1 X96.415 Y57.458 E2.00481
G1 X96.975 Y57.428 E2.02816
G1 X97.535 Y57.448 E2.05149
G1 X98.095 Y57.518 E2.07498
G1 X98.645 Y57.628 E2.09833
G1 X99.175 Y57.778 E2.12126
G1 X99.705 Y57.978 E2.14484
G1 X101.155 Y58.718 E2.21260
G1 X102.115 Y59.378 E2.26110
G1 X103.405 Y60.468 E2.33140
G1 X104.755 Y61.748 E2.40884
G1 X105.305 Y62.338 E2.44242
G1 X131.335 Y95.578 E4.19990
G1 X131.705 Y96.168 E4.22889
G1 X134.815 Y103.338 E4.55423
G1 X135.005 Y103.928 E4.58003
G1 X135.185 Y104.838 E4.61864
G1 X135.805 Y112.258 E4.92860
G1 X135.815 Y112.588 E4.94234
G1 X135.775 Y113.248 E4.96987
G1 X134.205 Y120.798 E5.29088
G1 X134.015 Y121.408 E5.31747
G1 X133.765 Y121.998 E5.34415
G1 X130.255 Y128.528 E5.65276
G1 X130.065 Y128.838 E5.66789
G1 X129.615 Y129.418 E5.69845
G1 X124.505 Y134.788 E6.00702
G1 X123.975 Y135.238 E6.03597
G1 X123.395 Y135.638 E6.06530
G1 X117.395 Y139.308 E6.35808
G1 X116.785 Y139.598 E6.38620
G1 X109.495 Y141.898 E6.70441
G1 X108.865 Y142.028 E6.73118
G1 X101.285 Y142.558 E7.04749
G1 X100.975 Y142.558 E7.06040
G1 X100.045 Y142.468 E7.09929
G1 X92.905 Y141.268 E7.40068
G1 X92.055 Y140.988 E7.43793
G1 X85.385 Y138.268 E7.73779
G1 X85.125 Y138.138 E7.74989
G1 X78.935 Y133.958 E8.06081
G1 X78.505 Y133.618 E8.08363
G1 X73.315 Y128.298 E8.39302
G1 X73.145 Y128.098 E8.40395
G1 X72.825 Y127.678 E8.42593
G1 X68.945 Y121.698 E8.72266
G1 X68.695 Y121.228 E8.74483
G1 X65.925 Y114.338 E9.05395
G1 X65.705 Y113.618 E9.08529
G1 X64.295 Y106.428 E9.39029
G1 X64.245 Y105.698 E9.42075
G1 X64.145 Y99.128 E9.69428
G1 X64.235 Y97.968 E9.74271
G1 X65.265 Y91.488 E10.01584
G1 X65.545 Y90.358 E10.06430
G1 X67.665 Y84.158 E10.33707
G1 X68.095 Y83.148 E10.38276
G1 X71.185 Y77.378 E10.65523
G1 X71.775 Y76.468 E10.70037
G1 X75.745 Y71.268 E10.97271
G1 X76.365 Y70.577 E11.01134
G1 F1800.000 E10.01134
G92 E0
G1 X100.106 Y131.668 F7800.000
G1 F1800.000 E1.00000
G1 X100.719 Y131.732 F540.000 E1.02567
G1 X100.719 Y131.732 E1.02567
G1 X100.843 Y131.745 E1.03087
G1 X101.002 Y131.749 E1.03747
G1 X101.002 Y131.748 E1.03747
G1 X102.622 Y131.784 E1.10491
G1 X102.154 Y132.744 E1.14934
G1 X102.154 Y132.744 E1.14934
G1 X101.355 Y134.371 E1.22481
G1 X101.075 Y134.358 E1.23649
G1 X100.442 Y132.665 E1.31174
G1 X100.442 Y132.665 E1.31174
G1 X100.144 Y131.782 E1.35052
G1 X99.455 Y132.255 F7800.000
G1 X99.280 Y131.949 F540.000 E1.36518
G1 X99.048 Y131.673 E1.38018
G1 X98.306 Y131.170 E1.41753
G1 X98.467 Y130.727 E1.43716
G1 X100.891 Y130.978 E1.53861
G1 X103.277 Y131.030 E1.63796
G1 X104.408 Y130.944 E1.68515
G1 X104.544 Y131.489 E1.70855
G1 X103.702 Y131.859 E1.74683
G1 X103.427 Y132.100 E1.76207
G1 X103.212 Y132.381 E1.77678
G1 X103.036 Y132.682 E1.79130
G1 X102.212 Y134.392 E1.87032
G1 X101.997 Y134.758 E1.88797
G1 X101.775 Y135.087 E1.90452
G1 X101.564 Y135.355 E1.91871
G1 X101.147 Y135.790 E1.94380
G1 X100.800 Y135.370 E1.96649
G1 X100.621 Y135.099 E1.98000
G1 X100.434 Y134.761 E1.99608
G1 X100.090 Y133.987 E2.03132
G1 X99.626 Y132.650 E2.09025
G1 X99.626 Y132.650 E2.09029
G1 X99.502 Y132.365 E2.10321
G1 F1800.000 E1.10321
G92 E0
G1 X96.928 Y131.136 F7800.000
G1 F1800.000 E1.00000
G1 X95.109 Y133.371 F540.000 E1.11993
G1 X94.838 Y133.297 E1.13162
G1 X94.424 Y130.487 E1.24987
G1 X96.812 Y131.106 E1.35255
G1 X97.479 Y130.486 F7800.000
G1 X97.742 Y130.554 F540.000 E1.36385
G1 X99.038 Y129.899 E1.42428
G1 X99.378 Y131.608 E1.49680
G1 X98.363 Y131.378 E1.54012
G1 X97.990 Y131.438 E1.55586
G1 X97.663 Y131.604 E1.57113
G1 X97.387 Y131.827 E1.58587
G1 X97.167 Y132.056 E1.59909
G1 X97.167 Y132.056 E1.59909
G1 X97.146 Y132.078 E1.60036
G1 X95.957 Y133.559 E1.67944
G1 X95.668 Y133.868 E1.69705
G1 X95.378 Y134.143 E1.71370
G1 X95.112 Y134.361 E1.72801
G1 X94.591 Y134.709 E1.75407
G1 X94.349 Y134.236 E1.77617
G1 X94.236 Y133.938 E1.78946
G1 X94.128 Y133.571 E1.80537
G1 X93.963 Y132.744 E1.84048
G1 X93.957 Y132.701 E1.84229
G1 X93.957 Y132.701 E1.84230
G1 X93.785 Y131.244 E1.90337
G1 X93.721 Y130.903 E1.91782
G1 X93.621 Y130.567 E1.93242
G1 X93.449 Y130.235 E1.94797
G1 X92.787 Y129.503 E1.98905
G1 X93.052 Y129.109 E2.00885
G1 X95.243 Y129.906 E2.10589
G1 X97.363 Y130.456 E2.19707
G1 F1800.000 E1.19707
G92 E0
G1 X91.353 Y129.387 F7800.000
G1 F1800.000 E1.00000
G1 X90.784 Y129.758 F540.000 E1.02828
G1 X90.784 Y129.791 E1.02967
G1 X89.232 Y131.030 E1.11234
G1 X88.984 Y130.901 E1.12398
G1 X89.117 Y129.144 E1.19730
G1 X89.117 Y129.144 E1.19730
G1 X89.153 Y128.734 E1.21447
G1 X89.176 Y127.993 E1.24530
G1 X89.794 Y128.361 E1.27522
G1 X89.794 Y128.361 E1.27522
G1 X90.325 Y128.676 E1.30092
G1 X91.337 Y129.157 E1.34759
G1 X91.345 Y129.267 E1.35217
G1 X91.817 Y130.001 F7800.000
G1 X91.552 Y130.174 F540.000 E1.36535
G1 X91.552 Y130.174 E1.36535
G1 X91.526 Y130.190 E1.36663
G1 X90.700 Y130.862 E1.41095
G1 X90.700 Y130.862 E1.41095
G1 X89.658 Y131.671 E1.46587
G1 X89.631 Y131.658 E1.46709
G1 X89.352 Y131.828 E1.48071
G1 X89.043 Y131.988 E1.49519
G1 X88.443 Y132.231 E1.52213
G1 X88.306 Y131.728 E1.54383
G1 X88.258 Y131.418 E1.55688
G1 X88.230 Y131.042 E1.57258
G1 X88.244 Y130.202 E1.60758
G1 X88.386 Y128.689 E1.67085
G1 X88.397 Y128.340 E1.68536
G1 X88.372 Y127.991 E1.69992
G1 X88.288 Y127.643 E1.71484
G1 X87.825 Y126.804 E1.75470
G1 X88.149 Y126.491 E1.77348
G1 X90.687 Y127.998 E1.89633
G1 X93.032 Y129.113 E2.00442
G1 X93.032 Y129.113 E2.00442
G1 X93.430 Y129.302 E2.02278
G1 X93.287 Y129.832 E2.04562
G1 X92.493 Y129.764 E2.07878
G1 X92.137 Y129.847 E2.09401
G1 X92.081 Y129.874 E2.09659
G1 X92.081 Y129.874 E2.09659
G1 X91.925 Y129.949 E2.10378
G1 F1800.000 E1.10378
G92 E0
G1 X86.287 Y126.345 F7800.000
G1 F1800.000 E1.00000
G1 X86.027 Y126.403 F540.000 E1.01108
G1 X86.027 Y126.491 E1.01474
G1 X84.416 Y127.299 E1.08979
G1 X83.966 Y127.488 E1.11009
G1 X83.767 Y127.317 E1.12103
G1 X84.024 Y126.352 E1.16262
G1 X84.024 Y126.352 E1.16262
G1 X84.136 Y125.997 E1.17809
G1 X84.136 Y125.997 E1.17809
G1 X84.367 Y125.258 E1.21032
G1 X84.544 Y124.533 E1.24140
G1 X86.351 Y126.092 E1.34073
G1 X86.317 Y126.229 E1.34663
G1 X86.859 Y125.515 F7800.000
G1 X88.288 Y125.518 F540.000 E1.40615
G1 X88.043 Y126.380 E1.44346
G1 X88.436 Y126.644 E1.46318
G1 X88.169 Y127.188 E1.48839
G1 X87.465 Y126.952 E1.51931
G1 X87.100 Y126.952 E1.53449
G1 X86.795 Y127.019 E1.54749
G1 X86.795 Y127.019 E1.54749
G1 X86.754 Y127.028 E1.54925
G1 X86.426 Y127.151 E1.56380
G1 X84.727 Y128.001 E1.64288
G1 X84.348 Y128.161 E1.66004
G1 X84.348 Y128.161 E1.66004
G1 X83.959 Y128.302 E1.67725
G1 X83.620 Y128.398 E1.69190
G1 X82.962 Y128.520 E1.71978
G1 X82.929 Y128.013 E1.74094
G1 X82.944 Y127.706 E1.75375
G1 X82.992 Y127.336 E1.76929
G1 X83.176 Y126.519 E1.80414
G1 X83.516 Y125.418 E1.85211
G1 X83.516 Y125.418 E1.85211
G1 X83.626 Y125.056 E1.86783
G1 X83.709 Y124.717 E1.88237
G1 X83.758 Y124.371 E1.89692
G1 X83.750 Y124.014 E1.91179
G1 X83.466 Y123.014 E1.95506
G1 X83.876 Y122.778 E1.97473
G1 X84.820 Y123.757 E2.03133
G1 X86.768 Y125.437 E2.13840
G1 F1800.000 E1.13840
G92 E0
G1 X82.344 Y122.272 F7800.000
G1 F1800.000 E1.00000
G1 X79.546 Y122.967 F540.000 E1.12003
G1 X79.384 Y122.761 E1.13093
G1 X79.815 Y121.886 E1.17156
G1 X79.815 Y121.886 E1.17156
G1 X80.370 Y120.878 E1.21944
G1 X80.687 Y120.206 E1.25035
G1 X82.269 Y122.179 E1.35560
G1 X82.945 Y121.793 F7800.000
G1 X83.036 Y121.907 F540.000 E1.36167
G1 X84.194 Y123.108 E1.43114
G1 X83.807 Y123.589 E1.45685
G1 X83.108 Y123.158 E1.49105
G1 X82.752 Y123.077 E1.50623
G1 X82.398 Y123.077 E1.52096
G1 X82.052 Y123.128 E1.53551
G1 X80.216 Y123.615 E1.61460
G1 X79.334 Y123.794 E1.65208
G1 X79.334 Y123.765 E1.65329
G1 X79.049 Y123.788 E1.66520
G1 X78.357 Y123.784 E1.69399
G1 X78.420 Y123.288 E1.71478
G1 X78.493 Y122.996 E1.72731
G1 X78.612 Y122.648 E1.74263
G1 X78.944 Y121.898 E1.77675
G1 X78.944 Y121.898 E1.77675
G1 X79.438 Y120.982 E1.82007
G1 X79.439 Y120.982 E1.82012
G1 X79.684 Y120.532 E1.84145
G1 X79.833 Y120.216 E1.85602
G1 X79.952 Y119.886 E1.87061
G1 X80.019 Y119.538 E1.88538
G1 X79.997 Y119.173 E1.90059
G1 X79.723 Y118.531 E1.92964
G1 X80.307 Y118.216 E1.95724
G1 X81.417 Y119.890 E2.04086
G1 X82.869 Y121.700 E2.13745
G1 F1800.000 E1.13745
G92 E0
G1 X78.960 Y117.499 F7800.000
G1 F1800.000 E1.00000
G1 X76.638 Y117.662 F540.000 E1.09688
G1 X76.102 Y117.668 E1.11920
G1 X75.982 Y117.434 E1.13013
G1 X77.638 Y115.325 E1.24174
G1 X77.859 Y115.350 E1.25101
G1 X78.154 Y116.035 E1.28205
G1 X78.882 Y116.425 E1.31641
G1 X78.547 Y116.790 E1.33703
G1 X78.900 Y117.396 E1.36620
G1 X79.495 Y116.892 F7800.000
G1 X79.972 Y117.712 F540.000 E1.40569
G1 X80.613 Y118.677 E1.45389
G1 X80.115 Y119.088 E1.48076
G1 X79.582 Y118.564 E1.51186
G1 X79.253 Y118.409 E1.52702
G1 X78.906 Y118.335 E1.54176
G1 X78.558 Y118.313 E1.55628
G1 X77.871 Y118.345 E1.58491
G1 X77.871 Y118.345 E1.58491
G1 X76.662 Y118.429 E1.63538
G1 X76.645 Y118.429 E1.63605
G1 X76.645 Y118.430 E1.63606
G1 X76.239 Y118.434 E1.65300
G1 X75.835 Y118.417 E1.66983
G1 X75.477 Y118.378 E1.68480
G1 X74.775 Y118.242 E1.71458
G1 X74.927 Y117.779 E1.73490
G1 X75.052 Y117.509 E1.74726
G1 X75.232 Y117.193 E1.76239
G1 X75.706 Y116.512 E1.79697
G1 X76.898 Y115.034 E1.87599
G1 X77.079 Y114.735 E1.89054
G1 X77.214 Y114.409 E1.90525
G1 X77.270 Y114.050 E1.92038
G1 X77.136 Y113.335 E1.95065
G1 X77.745 Y113.149 E1.97717
G1 X78.753 Y115.485 E2.08308
G1 X80.116 Y116.214 E2.14743
G1 X79.576 Y116.804 E2.18068
G1 F1800.000 E1.18068
G92 E0
G1 X76.610 Y112.230 F7800.000
G1 F1800.000 E1.00000
G1 X73.729 Y111.809 F540.000 E1.12121
G1 X73.654 Y111.557 E1.13213
G1 X75.842 Y109.635 E1.25339
G1 X76.027 Y110.417 E1.28686
G1 X76.027 Y110.417 E1.28686
G1 X76.070 Y110.595 E1.29448
G1 X76.572 Y112.116 E1.36116
G1 X77.325 Y111.947 F7800.000
G1 X77.365 Y112.070 F540.000 E1.36651
G1 X77.365 Y112.070 E1.36651
G1 X77.648 Y112.924 E1.40396
G1 X77.892 Y113.489 E1.42961
G1 X77.527 Y113.774 E1.44885
G1 X76.708 Y113.147 E1.49180
G1 X76.384 Y113.003 E1.50654
G1 X76.047 Y112.912 E1.52110
G1 X74.178 Y112.668 E1.59957
G1 X74.178 Y112.668 E1.59957
G1 X73.351 Y112.501 E1.63467
G1 X73.005 Y112.398 E1.64971
G1 X72.729 Y112.290 E1.66202
G1 X72.297 Y112.060 E1.68240
G1 X72.713 Y111.473 E1.71234
G1 X72.945 Y111.198 E1.72731
G1 X73.533 Y110.619 E1.76168
G1 X74.986 Y109.381 E1.84114
G1 X75.220 Y109.122 E1.85566
G1 X75.417 Y108.829 E1.87034
G1 X75.543 Y108.490 E1.88542
G1 X75.562 Y107.751 E1.91616
G1 X76.171 Y107.689 E1.94164
G1 X76.809 Y110.386 E2.05703
G1 X77.287 Y111.834 E2.12048
G1 F1800.000 E1.12048
G92 E0
G1 X75.233 Y106.560 F7800.000
G1 F1800.000 E1.00000
G1 X72.563 Y105.549 F540.000 E1.11886
G1 X72.540 Y105.277 E1.13023
G1 X74.909 Y103.879 E1.24477
G1 X75.046 Y105.306 E1.30445
G1 X75.216 Y106.442 E1.35226
G1 X76.000 Y106.495 F7800.000
G1 X76.237 Y108.082 F540.000 E1.41903
G1 X75.840 Y108.263 E1.43720
G1 X75.182 Y107.493 E1.47935
G1 X74.894 Y107.289 E1.49405
G1 X74.579 Y107.134 E1.50865
G1 X73.734 Y106.813 E1.54630
G1 X73.734 Y106.847 E1.54771
G1 X72.378 Y106.397 E1.60715
G1 X72.005 Y106.238 E1.62406
G1 X71.678 Y106.074 E1.63929
G1 X71.422 Y105.918 E1.65176
G1 X71.023 Y105.605 E1.67288
G1 X71.522 Y105.112 E1.70208
G1 X71.794 Y104.887 E1.71679
G1 X72.474 Y104.423 E1.75104
G1 X73.499 Y103.839 E1.80014
G1 X73.499 Y103.839 E1.80014
G1 X74.132 Y103.461 E1.83083
G1 X74.411 Y103.251 E1.84538
G1 X74.660 Y103.000 E1.86007
G1 X74.849 Y102.695 E1.87505
G1 X74.978 Y102.137 E1.89886
G1 X75.285 Y102.079 E1.91185
G1 X76.578 Y103.963 E2.00698
G1 X75.722 Y104.315 E2.04549
G1 X75.808 Y105.212 E2.08301
G1 X75.982 Y106.377 E2.13201
G1 F1800.000 E1.13201
G92 E0
G1 X74.707 Y100.606 F7800.000
G1 F1800.000 E1.00000
G1 X74.256 Y100.331 F540.000 E1.02197
G1 X72.348 Y99.305 E1.11219
G1 X72.367 Y99.016 E1.12423
G1 X75.090 Y97.999 E1.24525
G1 X74.920 Y99.658 E1.31468
G1 X74.902 Y100.499 E1.34970
G1 X74.812 Y100.548 E1.35398
G1 X74.203 Y101.202 F7800.000
G1 X74.175 Y101.181 F540.000 E1.35545
G1 X73.874 Y100.998 E1.37010
G1 X72.812 Y100.426 E1.42032
G1 X72.785 Y100.442 E1.42162
G1 X71.799 Y99.842 E1.46965
G1 X71.503 Y99.623 E1.48498
G1 X71.274 Y99.422 E1.49767
G1 X70.919 Y99.035 E1.51955
G1 X71.482 Y98.644 E1.54807
G1 X71.785 Y98.471 E1.56259
G1 X72.133 Y98.302 E1.57870
G1 X72.133 Y98.302 E1.57870
G1 X72.517 Y98.139 E1.59607
G1 X72.517 Y98.139 E1.59607
G1 X74.340 Y97.473 E1.67684
G1 X74.652 Y97.315 E1.69143
G1 X74.941 Y97.115 E1.70603
G1 X75.184 Y96.853 E1.72090
G1 X75.506 Y96.154 E1.75295
G1 X76.096 Y96.342 E1.77869
G1 X75.952 Y97.116 E1.81149
G1 X75.687 Y99.705 E1.91982
G1 X75.630 Y102.427 E2.03316
G1 X75.190 Y102.536 E2.05203
G1 X74.698 Y101.649 E2.09426
G1 X74.454 Y101.393 E2.10901
G1 X74.299 Y101.275 E2.11711
G1 F1800.000 E1.11711
G92 E0
G1 X75.590 Y94.855 F7800.000
G1 F1800.000 E1.00000
G1 X75.048 Y94.423 F540.000 E1.02885
G1 X74.543 Y93.973 E1.05701
G1 X74.512 Y94.004 E1.05887
G1 X73.316 Y93.047 E1.12262
G1 X73.385 Y92.781 E1.13407
G1 X74.214 Y92.619 E1.16924
G1 X74.214 Y92.619 E1.16924
G1 X76.244 Y92.239 E1.25522
G1 X75.713 Y94.190 E1.33937
G1 X75.612 Y94.737 E1.36254
G1 X76.449 Y94.432 F7800.000
G1 X76.240 Y95.562 F540.000 E1.41038
G1 X76.240 Y95.562 E1.41038
G1 X76.023 Y96.734 E1.45999
G1 X75.553 Y96.764 E1.47959
G1 X75.243 Y95.801 E1.52172
G1 X75.052 Y95.502 E1.53649
G1 X74.816 Y95.244 E1.55104
G1 X74.574 Y95.028 E1.56456
G1 X74.574 Y95.028 E1.56456
G1 X74.554 Y95.010 E1.56568
G1 X74.290 Y94.800 E1.57969
G1 X74.290 Y94.800 E1.57969
G1 X73.009 Y93.793 E1.64756
G1 X72.707 Y93.516 E1.66460
G1 X72.450 Y93.249 E1.68002
G1 X72.253 Y93.010 E1.69293
G1 X71.955 Y92.554 E1.71559
G1 X72.560 Y92.269 E1.74342
G1 X72.884 Y92.150 E1.75779
G1 X73.671 Y91.943 E1.79166
G1 X75.577 Y91.596 E1.87230
G1 X75.577 Y91.596 E1.87230
G1 X75.858 Y91.536 E1.88428
G1 X75.858 Y91.519 E1.88502
G1 X76.229 Y91.352 E1.90194
G1 X76.516 Y91.139 E1.91682
G1 X76.976 Y90.498 E1.94967
G1 X77.499 Y90.766 E1.97414
G1 X77.407 Y91.038 E1.98607
G1 X77.407 Y91.038 E1.98607
G1 X77.204 Y91.639 E2.01247
G1 X76.854 Y92.924 E2.06791
G1 X76.854 Y92.924 E2.06791
G1 X76.475 Y94.315 E2.12795
G1 F1800.000 E1.12795
G92 E0
G1 X77.219 Y89.167 F7800.000
G1 F1800.000 E1.00000
G1 X75.328 Y87.058 F540.000 E1.11792
G1 X75.440 Y86.808 E1.12933
G1 X76.865 Y86.781 E1.18869
G1 X76.865 Y86.882 E1.19288
G1 X78.137 Y86.729 E1.24618
G1 X78.273 Y86.917 E1.25587
G1 X77.270 Y89.059 E1.35430
G1 X76.475 Y89.527 F7800.000
G1 X76.456 Y89.497 F540.000 E1.35577
G1 X76.256 Y89.243 E1.36926
G1 X76.256 Y89.243 E1.36926
G1 X76.238 Y89.220 E1.37044
G1 X75.049 Y87.914 E1.44400
G1 X75.049 Y87.914 E1.44400
G1 X74.667 Y87.440 E1.46935
G1 X74.454 Y87.132 E1.48490
G1 X74.296 Y86.861 E1.49799
G1 X74.066 Y86.349 E1.52136
G1 X74.693 Y86.167 E1.54853
G1 X75.027 Y86.103 E1.56270
G1 X75.832 Y86.028 E1.59636
G1 X76.660 Y86.014 E1.63082
G1 X77.048 Y86.016 E1.64696
G1 X77.633 Y86.013 E1.67133
G1 X77.633 Y86.016 E1.67147
G1 X77.773 Y85.999 E1.67732
G1 X77.773 Y85.999 E1.67732
G1 X78.122 Y85.957 E1.69197
G1 X78.461 Y85.870 E1.70653
G1 X78.781 Y85.715 E1.72136
G1 X79.373 Y85.152 E1.75534
G1 X79.838 Y85.516 E1.77994
G1 X79.500 Y86.108 E1.80833
G1 X78.236 Y88.807 E1.93237
G1 X78.236 Y88.807 E1.93237
G1 X78.223 Y88.834 E1.93364
G1 X78.596 Y90.325 E1.99759
G1 X77.658 Y90.296 E2.03666
G1 X77.383 Y91.109 E2.07238
G1 X76.890 Y91.059 E2.09302
G1 X76.774 Y90.121 E2.13235
G1 X76.642 Y89.793 E2.14705
G1 X76.539 Y89.629 E2.15514
G1 F1800.000 E1.15514
G92 E0
